!!!!SEGMENT: pl-wtm--r-427-m_moniuszko-stanislaw--kolysanka.krn
!!!cenid: 18xx:1672
!!!COM: Moniuszko, Stanisław
!!!COM-rismID: pe30008351
!!!CDT: 1819/05/05-1872/06/04
!!!CNT: Polish
!!!OTL: Kołysanka
!!!PDT: 1872
!!!AGN: Secular
!!!SMS-siglum: PL-Wtm
!!!SMS-shelfmark: R 427/M
!!!SMS-shelfwork: W
!!!SMS-variant:
!!!SMS-altvar:
!!!NIFC-rismSourceID: 1001090147
!!!NIFC-rismChildID: 1001090147
!!!NIFC-islandoraID:
!!!URL-pdf-islandora:
!!!URL-scan:
!!!IIIF:
!!!ONB-nifc:
!!!AIN: 2 piano
!!!key:
**kern	**kern	**dynam
*part2	*part1	*part1
*staff2	*staff1	*
*Ipiano	*Ipiano	*
*I"[Piano]	*I"[Piano]	*
*I'[pf]	*I'[pf]	*
*clefF4	*clefG2	*
*k[f#c#]	*k[f#c#]	*
*D:	*D:	*
*M2/4	*M2/4	*
=1	=1	=1
*^	*	*
*	*2\right	*	*
!	!	!LO:TX:i:a:t=Józefy. Dziadulewisz.	!
!	!	!LO:TX:t=P::problem=kolejność znaków w źródle&colon; f# cc#	!
!LO:N:vis=2	!	!LO:TX:i:a:t=Andantino, molto tranquillo.	!
(<8D/L	2D\	4r	pp
8A/	.	.	.
8d/	.	(>8f#/L	.
8A/J)	.	8a/J)	.
=2	=2	=2	=2
*	*	*^	*
!LO:N:vis=2	!	!	!	!
(<8D/L	2D\	[>2a/	4r	.
8A/	.	.	.	.
!	!	!LO:TX:t=P:problem=all\right&colon; global	!	!
8B/	.	.	8f#\ 8d	.
8A/J)	.	.	8r	.
=3	=3	=3	=3	=3
!LO:N:vis=2	!	!	!	!
(<8D/L	2D\	4a/]	8f#\ 8d	.
8A/	.	.	8r	.
8d/	.	(>8f#/L	4ryy	.
8A/J)	.	8a/J)	.	.
=4	=4	=4	=4	=4
!LO:N:vis=2	!	!	!	!
(<8D/L	2D\	4a/	4f#\	.
8A/	.	.	.	.
8B/	.	(>8f#/L	8d\	.
8A/J)	.	8dd/J)	8r	.
=5	=5	=5	=5	=5
*	*	*	*2\right	*
!LO:N:vis=2	!	!	!	!
8D/L	[<2D\	8.dd/L	[<2f#\	.
8A/	.	.	.	.
.	.	16ee/K	.	.
8d/	.	8dd/	.	.
8A/J	.	8a/J	.	.
=6	=6	=6	=6	=6
8d/L	2D\]	8.b/L	8f#\]	.
8G/	.	.	8r	.
.	.	16ccn/Jk	.	.
8B/	.	8dd/	(>4g\	.
8G/J	.	8r	.	.
=7	=7	=7	=7	=7
8cn/L	[<2D\	8.dd/L	4f#\)	.
8A/	.	.	.	.
.	.	16ee/K	.	.
8B/	.	8dd/	[<4g\	.
8G/J	.	8b/J	.	.
=8	=8	=8	=8	=8
8e/L	2D\]	8cc#/L	4g\]	.
8B/	.	8dd/J	.	.
8c#X/	.	4ee/	4g\	.
8A/J	.	.	.	.
=9	=9	=9	=9	=9
!	!	!	!	!LO:HP:a
8d/L	[<2D\	8.dd/L	4f#\	<
8A/	.	.	.	.
.	.	16ee/K	.	[
8d/	.	8.ff#^>/	4a\	.
8F#/J	.	.	.	.
.	.	16dd/Jk	.	.
*	*	*v	*v	*
=10	=10	=10	=10
8G/L	4D\]	8.cc#L 8.a/	.
8B/	.	.	.
.	.	16bJk 16g/	.
8d/	4r	4a 4f#/	.
8D/J	.	.	.
!!LO:LB:g=original
=11	=11	=11	=11
*	*	*^	*
8G/L	2r	(>8b/L	4g\	.
8D/	.	8dd/J)	.	.
8F#/	.	8.a/L	4d\	.
8D/J	.	.	.	.
.	.	32f#/LL	.	.
.	.	32g/JJJ	.	.
=12	=12	=12	=12	=12
8AA/L	4AA\	8.f#/L	4c#\	.
8G/	.	.	.	.
.	.	16e/Jk	.	.
8F#/	4D\	4d/	4d\	.
8A/J	.	.	.	.
*	*	*v	*v	*
=13	=13	=13	=13
(<8C#/L	4C#\	(>8e/L	.
8A/	.	8a/J)	.
8D/	4D\	(>8.fn/L	.
8A/J	.	.	.
.	.	32g/LL	.
.	.	32f/JJJ	.
=14	=14	=14	=14
*	*	*^	*
8C#/L	4C#\	8e/L	4ryy	.
8A/	.	8a/J)	.	.
8D/	4D\	4g#X^>/	4fn\	.
8B/J	.	.	.	.
*	*	*v	*v	*
=15	=15	=15	=15
8E/L	4E\	(>8gn/L	.
!	!	!LO:SIC:v:s=ccn	!
8cn/	.	8cc#/J)	.
8Fn/	4Fn\	(>8.a/L	.
8c/J	.	.	.
.	.	32b-X/LL	.
.	.	32a/JJJ	.
=16	=16	=16	=16
*	*	*^	*
8E/L	4E\	8g/L	4ryy	.
8cn/	.	8ccn/J)	.	.
8Fn/	4Fn\	4bn^>/	8.a-X\L	.
8d/J)	.	.	.	.
.	.	.	32g\LL	.
.	.	.	32f#\JJJ	.
=17	=17	=17	=17	=17
(<8A/L	4A\	(>8ccn/L	4ccn\	.
8cn/	.	8ffn/J)	.	.
8G/	4G\	8.ff^>/L	4b-X\	.
8c/J	.	.	.	.
.	.	16ee/Jk	.	.
=18	=18	=18	=18	=18
8Fn/L	4Fn\	(>8a/L	4a\	.
8A/	.	8dd/J)	.	.
8E/	4E\	8.dd^>/L	4g\	.
8A/J	.	.	.	.
.	.	16ccn/Jk	.	.
*v	*v	*	*	*
=19	=19	=19	=19
8E-X/L	8g/L	8g\L	.
!	!LO:TX:i:a:t=riten&colon;	!	!
8D/	8a/	8f#X\J	.
8G/	8b-X/	[<4g\	.
8GG/J	16ccn/L	.	.
.	16dd/JJ	.	.
=20	=20	=20	=20
!LO:TX:t=P:problem=mixed beam	!	!	!
8Cn/L	8ee-X/L	4g\]	.
8BB-X/	8dd/J	.	.
8AA/	4cc#X/	4g\	.
8A\J)	.	.	.
!!LO:LB:g=original
=21	=21	=21	=21
*^	*	*	*
!LO:N:vis=2	!	!LO:TX:i:a:t=a tempo Im	!	!
8D/L	[<2D\	8.dd/L	2f#\	.
8A/	.	.	.	.
.	.	16ee/K	.	.
8d/	.	8dd/	.	.
8A/J	.	8a/J	.	.
=22	=22	=22	=22	=22
8d/L	2D\]	8.b/L	8g\	.
8G/	.	.	8r	.
.	.	16ccn/Jk	.	.
8B/	.	[>4dd/	(>4g\	.
8G/J	.	.	.	.
=23	=23	=23	=23	=23
8cn/L	[<2D\	8.dd/L]	4f#\)	.
8A/	.	.	.	.
.	.	16ee/K	.	.
8B/	.	8dd/	[<4g\	.
8G/J	.	8cc#/J	.	.
=24	=24	=24	=24	=24
8e/L	2D\]	8cc#X/L	4g\]	.
8B/	.	8dd/J	.	.
8c#X/	.	4ee/	4g\	.
8A/J	.	.	.	.
=25	=25	=25	=25	=25
!	!	!	!	!LO:HP:a
8d/L	[<2D\	8.dd/L	4f#\	<
8A/	.	.	.	.
.	.	16ee/	.	[
8d/	.	8.ff#^>/	4a\	.
8F#/J	.	.	.	.
.	.	16dd/J	.	.
=26	=26	=26	=26	=26
8G/L	2D\]	8.cc#/L	8.a\L	.
8B/	.	.	.	.
.	.	16b/Jk	16g\Jk	.
8d/	.	4a/	4f#\	.
8D/J	.	.	.	.
*v	*v	*	*	*
=27	=27	=27	=27
8G/L	(>8b/L	4g\	.
8D/	8dd/J)	.	.
8F#/	(>8.a/L	4d\	.
8D/J	.	.	.
.	32f#/LL	.	.
.	32g/JJJ	.	.
=28	=28	=28	=28
*^	*	*	*
8rG	2AA\	4f#/	4d\	.
8G/L	.	.	.	.
8G/	.	16e/LL	8c#\L	.
.	.	16g/	.	.
8A/J	.	16cc#/	8g\J	.
.	.	16ee/JJ)	.	.
=29	=29	=29	=29	=29
8r	[<2D\	(>8dd/L	2f#\	.
8A/L	.	16ff#/Jk)	.	.
.	.	16r	.	.
(<8A#X/	.	(>8cc#/L	.	.
8d/J)	.	16ff#/Jk)	.	.
.	.	16r	.	.
=30	=30	=30	=30	=30
(<8B/L	2D\]	(>8.b/L	2f#\	.
8d/J)	.	.	.	.
.	.	32cc#/LL	.	.
.	.	32b/JJJ	.	.
(<8cn/L	.	8a/L	.	.
!	!	!LO:N:vis=32	!	!
8d/J	.	16gg/Jk)	.	.
.	.	16r	.	.
*	*	*v	*v	*
=31	=31	=31	=31
8c#X/L	[<2D\	(>16g/LL	.
.	.	16a/	.
8A/	.	16cc#/	.
.	.	16ee/JJ	.
8B/	.	16dd/LL	.
.	.	16b/	.
8d/J)	.	16g/	.
.	.	16gg/JJ)	.
!!LO:LB:g=original
=32	=32	=32	=32
*	*	*^	*
(<8B-X/L	2D\]	(<8.gg/L	2g\	.
8d/J)	.	.	.	.
.	.	16ff#/Jk)	.	.
.	.	8qgg/	.	.
(<8A/L	.	(<8.ff#/L	.	.
8c#/J)	.	.	.	.
.	.	16ee/Jk)	.	.
=33	=33	=33	=33	=33
(<8d/L	2D\	(>8dd/L	2f#\	.
8A/J)	.	16ff#/Jk)	.	.
.	.	16r	.	.
(<8A#X/L	.	(>8cc#/L	.	.
8d/J)	.	16ff#/Jk)	.	.
.	.	16r	.	.
=34	=34	=34	=34	=34
(<8B/L	[<2D\	(>8.b/L	2f#\	.
8d/J)	.	.	.	.
.	.	32cc#/LL	.	.
.	.	32b/JJJ	.	.
(<8cn/L	.	8a/L	.	.
8d/J	.	16ff#/Jk)	.	.
.	.	16r	.	.
*	*	*v	*v	*
=35	=35	=35	=35
8c#X/L	2D\]	(<16g/LL	.
.	.	16a/	.
8A/	.	16cc#/	.
.	.	16ee/JJ	.
8B/	.	16dd/LL	.
.	.	16b/	.
8d/J)	.	16g/	.
.	.	16gg/JJ)	.
=36	=36	=36	=36
*	*	*^	*
(<8B/L	4D\	(<8.gg^>/L	2g\	.
8d/J)	.	.	.	<
.	.	16ff#/Jk)	.	.
(<8B-X/L	4D\	(<16gg/LL	.	.
.	.	16ff#/	.	.
8d/J)	.	16gg/	.	[[
.	.	16ff#/JJ)	.	.
=37	=37	=37	=37	=37
4Bn;>/	4D 4DD\	(>[>4gg;>/	4g\	sf
!	!	!LO:TX:b:i:t=legatiſsimo.	!	!
4r	4rAAAyy	32gg/LLL]	4ryy	pp
.	.	32ee/	.	.
.	.	32dd/	.	.
.	.	32b/	.	.
.	.	32g/	.	.
.	.	32e/	.	.
.	.	32d/	.	.
.	.	32B/JJJ)	.	.
*v	*v	*	*	*
*	*v	*v	*
=38	=38	=38
2r	16G/LL	<
.	16d/	.
.	16g/	.
.	16b/JJ	[[
.	8.dd\L	.
.	16ee\Jk	.
=39	=39	=39
*^	*^	*
*	*2\left	*	*	*
!	!	!LO:TX:t=P:problem=diminuendolikeaccent	!	!
(>8D/L	2D\	(>4ff#^/	4dd 4f#\	.
8A/	.	.	.	.
8f#/J)	.	8aa/L)	4r	.
8r	.	16r	.	.
.	.	16a/Jk	.	.
=40	=40	=40	=40	=40
!	!	!	!	!LO:HP:a
*	*2\right	*	*	*
(>8D/L	2D\	(>4a/	4f#\	>
8A/	.	.	.	.
8d/J)	.	8ff#/L)	4r	.
8r	.	16r	.	.
.	.	16f#/Jk	.	.
=41	=41	=41	=41	=41
*	*2\left	*	*	*
(>8D/L	2D\	(>4f#/	4d\	.
8A/	.	.	.	.
8F#/J)	.	8dd/L)	4r	.
8r	.	16r	.	.
.	.	16d/Jk	.	.
*	*	*v	*v	*
=42	=42	=42	=42
!LO:N:vis=8	!	!LO:N:vis=8	!
4A\	4ryy	4f# 4d/	.
8r	8r	8r	.
8A 8F#/	8D\	8r	.
*v	*v	*	*
=43	=43	=43
2D 2DD\	2f#;> 2d 2A< 2F#</	.
==	==	==
*-	*-	*-
!!!system-decoration: [(s1,s2)]
!!!RDF**kern: > = above
!!!RDF**kern: < = below
!!!RDF**dynam: > = "diminuendo"
!!!EED: Antoni Szymański
!!!EEV: 2021-04-18
!!!ENC: Marcin Jachim
!!!END: 2021-03-30
!!!YEC: Copyright 2022 Narodowy Instytut Fryderyka Chopina (https://polishscores.org)
!!!YEM: License CC-BY-4.0 (https://creativecommons.org/licenses/by/4.0)
